dist/svg/object-based/wikis_16.svg

<svg xmlns="http://www.w3.org/2000/svg" viewBox="0 0 16 16"><path d="M14.525 3.38l-.026-.034c-.51-.71-1.134-1.334-1.845-1.844l-.035-.026C11.313.55 9.722 0 8 0 3.58 0 0 3.58 0 8c0 1.722.55 3.313 1.475 4.62.01.01.018.023.027.035.51.71 1.133 1.333 1.844 1.844l.036.026C4.687 15.45 6.278 16 8 16c4.42 0 8-3.58 8-8 0-1.722-.55-3.314-1.475-4.62zm-1.798 1.347c0 2.02-.76 3.864-2 5.273l-2-2 3.965-3.965c.022.228.035.46.035.692zm-9.454 6.546c0-2.02.76-3.864 2-5.273l2 2-3.965 3.965c-.022-.228-.035-.46-.035-.692zm4.727-4l-2-2c1.41-1.24 3.25-2 5.272-2 .234 0 .464.013.692.035L8 7.273zm0 1.454l2 2c-1.41 1.24-3.25 2-5.272 2-.234 0-.464-.013-.692-.035L8 8.727zm3.636-6.522c-.122-.006-.24-.023-.364-.023-2.325 0-4.44.88-6.047 2.316L3.54 2.813c1.2-1.035 2.754-1.67 4.46-1.67 1.338 0 2.58.396 3.636 1.062zM2.813 3.54l1.685 1.685c-1.436 1.608-2.316 3.722-2.316 6.047 0 .124.017.243.023.365C1.54 10.58 1.143 9.34 1.143 8c0-1.706.635-3.26 1.67-4.46zm1.55 10.255c.123.006.24.023.365.023 2.325 0 4.44-.88 6.047-2.316l1.685 1.685c-1.2 1.035-2.754 1.67-4.46 1.67-1.338 0-2.58-.396-3.636-1.062zm8.824-1.335l-1.685-1.685c1.436-1.608 2.316-3.722 2.316-6.047 0-.124-.017-.243-.023-.365C14.46 5.42 14.857 6.66 14.857 8c0 1.706-.635 3.26-1.67 4.46z"/></svg>

<?xml version="1.0" encoding="iso-8859-1"?>
<!-- Generator: Adobe Illustrator 20.0.0, SVG Export Plug-In . SVG Version: 6.00 Build 0)  -->
<svg version="1.1" id="Layer_1" xmlns="http://www.w3.org/2000/svg" xmlns:xlink="http://www.w3.org/1999/xlink" x="0px" y="0px"
	 viewBox="0 0 16 16" style="enable-background:new 0 0 16 16;" xml:space="preserve">
<path d="M14.525,3.381c-0.008-0.012-0.018-0.023-0.026-0.035c-0.51-0.711-1.133-1.334-1.844-1.844
	c-0.012-0.009-0.023-0.018-0.035-0.026C11.313,0.55,9.722,0,8,0C3.581,0,0,3.581,0,8c0,1.722,0.549,3.313,1.475,4.619
	c0.009,0.012,0.018,0.024,0.027,0.036c0.51,0.711,1.133,1.333,1.844,1.844c0.012,0.009,0.024,0.018,0.036,0.027
	C4.687,15.451,6.278,16,8,16c4.419,0,8-3.581,8-8C16,6.278,15.45,4.686,14.525,3.381z M12.727,4.727
	c0,2.021-0.759,3.864-1.999,5.273L8.727,8l3.965-3.965C12.714,4.263,12.727,4.494,12.727,4.727z M3.273,11.273
	c0-2.021,0.759-3.864,1.999-5.273L7.273,8l-3.965,3.965C3.286,11.737,3.273,11.506,3.273,11.273z M8,7.273L5.999,5.272
	c1.41-1.24,3.252-1.999,5.273-1.999c0.234,0,0.464,0.013,0.692,0.035L8,7.273z M8,8.727l2.001,2.001
	c-1.41,1.24-3.252,1.999-5.273,1.999c-0.234,0-0.464-0.013-0.692-0.035L8,8.727z M11.636,2.205
	c-0.122-0.006-0.241-0.023-0.364-0.023c-2.325,0-4.44,0.88-6.047,2.316L3.54,2.813C4.741,1.778,6.294,1.143,8,1.143
	C9.338,1.143,10.58,1.539,11.636,2.205z M2.813,3.54l1.685,1.685c-1.436,1.608-2.316,3.722-2.316,6.047
	c0,0.124,0.017,0.243,0.023,0.365C1.539,10.581,1.143,9.339,1.143,8C1.143,6.294,1.778,4.741,2.813,3.54z M4.364,13.795
	c0.122,0.006,0.24,0.023,0.364,0.023c2.325,0,4.44-0.88,6.047-2.316l1.685,1.685c-1.201,1.035-2.754,1.67-4.459,1.67
	C6.662,14.857,5.42,14.461,4.364,13.795z M13.187,12.46l-1.685-1.685c1.436-1.608,2.316-3.722,2.316-6.047
	c0-0.124-0.017-0.243-0.023-0.365C14.461,5.419,14.857,6.661,14.857,8C14.857,9.706,14.222,11.259,13.187,12.46z"/>
</svg>
